X:70
T:Rondeau (Abdelazer Suite)
C:Purcell, H.
M:2/4
L:1/16
Q:1/4=120
K:Dmin
|:DEFG ABCD|EFGA BcBA|GFED EFGE|F8|
ABcd efed|cBAG ABcA|BAGF EFGE|D8:|

